assets/azureintegrationaccounts/original.svg

<svg height="18" viewBox="0 0 18 18" width="18" xmlns="http://www.w3.org/2000/svg" xmlns:xlink="http://www.w3.org/1999/xlink"><linearGradient id="a"><stop offset="0" stop-color="#b77af4"/><stop offset="1" stop-color="#773adc"/></linearGradient><linearGradient id="b" gradientUnits="userSpaceOnUse" x1="5.06" x2="5.06" xlink:href="#a" y1="11.62" y2="14.5"/><linearGradient id="c" gradientUnits="userSpaceOnUse" x1="13.06" x2="13.06" xlink:href="#a" y1="11.62" y2="14.5"/><path d="m1.06 1.6v14.92a.54.54 0 0 0 .54.54h14.92a.54.54 0 0 0 .54-.54v-14.92a.54.54 0 0 0 -.54-.54h-14.92a.54.54 0 0 0 -.54.54m14.56 14h-12.62a.54.54 0 0 1 -.54-.54v-12.56h13.16z" fill="#0078d4"/><path d="m3.62 3.62h2.88v2.88h-2.88z" fill="#ffca00"/><path d="m3.62 7.62h2.88v2.88h-2.88z" fill="#e62323"/><path d="m7.62 7.62h2.88v2.88h-2.88z" fill="#5ea0ef"/><path d="m3.62 11.62h2.88v2.88h-2.88z" fill="url(#b)"/><path d="m7.62 11.62h2.88v2.88h-2.88z" fill="#e62323"/><path d="m11.62 11.62h2.88v2.88h-2.88z" fill="url(#c)"/></svg>

<svg xmlns="http://www.w3.org/2000/svg" xmlns:xlink="http://www.w3.org/1999/xlink" width="18" height="18" viewBox="0 0 18 18"><linearGradient id="a"><stop offset="0" stop-color="#b77af4"/><stop offset="1" stop-color="#773adc"/></linearGradient><linearGradient xlink:href="#a" id="b" x1="5.06" x2="5.06" y1="11.62" y2="14.5" gradientUnits="userSpaceOnUse"/><linearGradient xlink:href="#a" id="c" x1="13.06" x2="13.06" y1="11.62" y2="14.5" gradientUnits="userSpaceOnUse"/><path fill="#0078d4" d="M1.06 1.6v14.92a.54.54 0 0 0 .54.54h14.92a.54.54 0 0 0 .54-.54V1.6a.54.54 0 0 0-.54-.54H1.6a.54.54 0 0 0-.54.54m14.56 14H3a.54.54 0 0 1-.54-.54V2.5h13.16z"/><path fill="#ffca00" d="M3.62 3.62H6.5V6.5H3.62z"/><path fill="#e62323" d="M3.62 7.62H6.5v2.88H3.62z"/><path fill="#5ea0ef" d="M7.62 7.62h2.88v2.88H7.62z"/><path fill="url(#b)" d="M3.62 11.62H6.5v2.88H3.62z"/><path fill="#e62323" d="M7.62 11.62h2.88v2.88H7.62z"/><path fill="url(#c)" d="M11.62 11.62h2.88v2.88h-2.88z"/></svg>
